svg/Filled/arrow-forward_filled.svg

<svg viewBox="0 0 24 24" xmlns="http://www.w3.org/2000/svg" width="24" height="24"><path d="M11.86 5.43a1.2 1.2 0 0 1 1.6-.08l.1.08 4.59 4.59q.28.27.52.55.26.27.44.75.21.68 0 1.36l-.04.12q-.17.4-.4.63-.24.27-.52.55l-4.59 4.59-.1.08a1.2 1.2 0 0 1-1.6-1.78l3.68-3.67H6.09a1.2 1.2 0 0 1 0-2.4h9.45l-3.68-3.67-.08-.1a1.2 1.2 0 0 1 .08-1.6"/></svg>

<svg viewBox="0 0 24 24" xmlns="http://www.w3.org/2000/svg" width="24" height="24"><path d="M11.86 5.43A1.2 1.2 0 0 1 13.46 5.35L18.15 10.02Q18.43 10.29 18.67 10.57Q18.93 10.84 19.11 11.32Q19.32 12 19.11 12.68L19.07 12.8Q18.9 13.2 18.67 13.43Q18.43 13.7 18.15 13.98L13.46 18.65A1.2 1.2 0 0 1 11.86 16.87L15.54 13.2L6.09 13.2A1.2 1.2 0 0 1 6.09 10.8L15.54 10.8L11.78 7.03A1.2 1.2 0 0 1 11.86 5.43"/></svg>
